neru-light-classic/32x32/apps/deadbeef.svg

<?xml version="1.0" encoding="UTF-8" standalone="no"?>
<svg
   xmlns:dc="http://purl.org/dc/elements/1.1/"
   xmlns:cc="http://creativecommons.org/ns#"
   xmlns:rdf="http://www.w3.org/1999/02/22-rdf-syntax-ns#"
   xmlns:svg="http://www.w3.org/2000/svg"
   xmlns="http://www.w3.org/2000/svg"
   xmlns:sodipodi="http://sodipodi.sourceforge.net/DTD/sodipodi-0.dtd"
   xmlns:inkscape="http://www.inkscape.org/namespaces/inkscape"
   height="32"
   width="32"
   version="1"
   id="svg12"
   sodipodi:docname="deadbeef.svg"
   inkscape:version="0.92.1 r">
  <metadata
     id="metadata18">
    <rdf:RDF>
      <cc:Work
         rdf:about="">
        <dc:format>image/svg+xml</dc:format>
        <dc:type
           rdf:resource="http://purl.org/dc/dcmitype/StillImage" />
      </cc:Work>
    </rdf:RDF>
  </metadata>
  <defs
     id="defs16" />
  <sodipodi:namedview
     pagecolor="#ffffff"
     bordercolor="#666666"
     borderopacity="1"
     objecttolerance="10"
     gridtolerance="10"
     guidetolerance="10"
     inkscape:pageopacity="0"
     inkscape:pageshadow="2"
     inkscape:window-width="640"
     inkscape:window-height="480"
     id="namedview14"
     showgrid="false"
     inkscape:zoom="8.8125"
     inkscape:cx="-27.120567"
     inkscape:cy="16"
     inkscape:current-layer="svg12" />
  <rect
     style="opacity:1;fill:#4f4f4f;fill-opacity:1;fill-rule:evenodd;stroke:none;stroke-width:1.03534329;stroke-linecap:round;stroke-linejoin:bevel;stroke-miterlimit:4;stroke-dasharray:none;stroke-dashoffset:0;stroke-opacity:1"
     id="rect4497-3"
     width="28.203388"
     height="28.203388"
     x="1.8983059"
     y="1.8983059"
     ry="5.575182" />
  <path
     style="fill:#79ce24;stroke-width:1;fill-opacity:1"
     d="M 9.1621094 5.6660156 A 1.6976233 1.6218175 0 0 0 7.4257812 7.2871094 L 7.4257812 24.712891 A 1.6976233 1.6218175 0 0 0 9.9726562 26.117188 L 17.869141 21.761719 L 25.767578 17.404297 A 1.6976233 1.6218175 0 0 0 25.767578 14.595703 L 17.869141 10.238281 L 9.9726562 5.8828125 A 1.6976233 1.6218175 0 0 0 9.1621094 5.6660156 z M 11.117188 10.09375 L 15.544922 13.046875 L 19.974609 16 L 11.117188 21.904297 L 11.117188 20.427734 L 17.759766 16 L 14.4375 13.785156 L 11.117188 16 L 11.117188 10.09375 z "
     id="path2" />
</svg>

<svg xmlns="http://www.w3.org/2000/svg" height="32" width="32" version="1"><rect width="28.203" height="28.203" x="1.898" y="1.898" ry="5.575" fill="#4f4f4f" fill-rule="evenodd"/><path d="M9.162 5.666a1.698 1.622 0 0 0-1.736 1.621v17.426a1.698 1.622 0 0 0 2.547 1.404l7.896-4.355 7.899-4.358a1.698 1.622 0 0 0 0-2.808l-7.899-4.358-7.896-4.355a1.698 1.622 0 0 0-.81-.217zm1.955 4.428l4.428 2.953L19.975 16l-8.858 5.904v-1.476L17.76 16l-3.323-2.215L11.117 16v-5.906z" fill="#79ce24"/></svg>
